dist/images/commercial.svg

<svg xmlns="http://www.w3.org/2000/svg" width="81" height="84"><path fill-rule="evenodd" fill="#818181" d="M15.658 16.529l20.449 6.146.675-2.198-21.683-6.516-9.225 5.269 1.16 1.989 8.111-4.632a.652.652 0 01.512-.057l.001-.001zm20.694 7.565l-20.803-6.252-8.429 4.814a.654.654 0 01-.888-.237l-1.81-3.105a.639.639 0 01.24-.878l10.018-5.721a.652.652 0 01.527-.067l22.575 6.784a.643.643 0 01.434.803l-1.052 3.43a.652.652 0 01-.812.429zm33.997 55.828v-5.97c0-.085.016-.167.047-.242l.807-2.63-21.682-6.516-9.225 5.267.688 1.182a.63.63 0 01.087.32h.003v8.589a.65.65 0 01-.653.646H36.58a.65.65 0 01-.653-.646v-5.97c0-.085.017-.167.048-.242l.807-2.63-21.683-6.516-9.225 5.267.689 1.182c.058.1.086.211.086.32h.003v8.589a.65.65 0 01-.653.646H1.302v2.135h78.374v-2.135h-8.674a.65.65 0 01-.653-.646zm1.306-5.882v5.235h8.674a.65.65 0 01.654.647v3.427a.651.651 0 01-.654.648H.648a.65.65 0 01-.653-.648v-3.427a.65.65 0 01.653-.647h4.697v-7.774l-.923-1.585a.64.64 0 01.24-.879l10.018-5.72a.648.648 0 01.527-.067l22.575 6.784a.643.643 0 01.434.803l-.983 3.203v5.235h2.534v-7.774l-.924-1.585a.642.642 0 01.24-.879l10.018-5.72a.65.65 0 01.528-.067l22.575 6.784a.643.643 0 01.434.803l-.983 3.203zm-52.084 5.882v-7.288a.65.65 0 01.865-.612l11.001 2.613c.298.07.5.335.5.627h.002v4.66a.65.65 0 01-.653.646H20.224a.65.65 0 01-.653-.646zm1.306-6.471v5.824h9.756v-3.506l-9.756-2.318zm33.116 6.471v-7.288a.65.65 0 01.864-.612l11.001 2.613c.299.07.5.335.5.627h.003v4.66a.65.65 0 01-.653.646H54.646a.65.65 0 01-.653-.646zm1.306-6.471v5.824h9.756v-3.506l-9.756-2.318zm-5.22-12.645l20.45 6.146.674-2.198-21.682-6.516-9.225 5.268 1.16 1.99 8.111-4.632a.655.655 0 01.512-.058zm20.695 7.565l-20.803-6.252-8.43 4.814a.655.655 0 01-.888-.237l-1.81-3.105a.642.642 0 01.24-.879l10.018-5.721a.658.658 0 01.528-.066l22.575 6.784a.642.642 0 01.434.802l-1.053 3.431a.651.651 0 01-.811.429zm-20.695-13.89l20.45 6.145.674-2.197-21.682-6.516-9.225 5.268 1.16 1.99 8.111-4.632a.655.655 0 01.512-.058zm20.695 7.564l-20.803-6.251-8.43 4.814a.655.655 0 01-.888-.238l-1.81-3.104a.642.642 0 01.24-.879l10.018-5.72a.654.654 0 01.528-.067l22.575 6.784a.643.643 0 01.434.803l-1.053 3.429a.65.65 0 01-.811.429zm-20.695-13.89l20.45 6.146.674-2.197-21.682-6.516-9.225 5.268 1.16 1.989 8.111-4.631a.651.651 0 01.512-.058v-.001zm20.695 7.566l-20.803-6.252-8.43 4.813a.654.654 0 01-.888-.237l-1.81-3.105a.64.64 0 01.24-.878l10.018-5.721a.658.658 0 01.528-.067l22.575 6.784a.643.643 0 01.434.803l-1.053 3.43a.652.652 0 01-.811.43zM50.079 41.83l20.45 6.145.674-2.197-21.682-6.515-9.225 5.268 1.16 1.989 8.111-4.631a.647.647 0 01.512-.058v-.001zm20.695 7.565l-20.803-6.252-8.43 4.814a.655.655 0 01-.888-.237l-1.81-3.104a.641.641 0 01.24-.879l10.018-5.721a.65.65 0 01.528-.067l22.575 6.784a.643.643 0 01.434.803l-1.053 3.43a.651.651 0 01-.811.429zm-20.695-13.89l20.45 6.145.674-2.197-21.682-6.516-9.225 5.268 1.16 1.99 8.111-4.632a.655.655 0 01.512-.058zm20.695 7.565l-20.803-6.251-8.43 4.813a.655.655 0 01-.888-.237l-1.81-3.105a.642.642 0 01.24-.879l10.018-5.721a.654.654 0 01.528-.066l22.575 6.784a.643.643 0 01.434.803l-1.053 3.429a.65.65 0 01-.811.43zM50.079 29.179l20.45 6.146.674-2.197-21.682-6.516-9.225 5.268 1.16 1.99 8.111-4.633a.655.655 0 01.512-.057v-.001zm20.695 7.566l-20.803-6.252-8.43 4.814a.655.655 0 01-.888-.237l-1.81-3.105a.642.642 0 01.24-.879l10.018-5.72a.654.654 0 01.528-.068l22.575 6.785a.643.643 0 01.434.803l-1.053 3.43a.651.651 0 01-.811.429zM50.079 22.854L70.529 29l.674-2.197-21.682-6.516-9.225 5.268 1.16 1.99 8.111-4.632a.655.655 0 01.512-.058v-.001zm20.695 7.566l-20.803-6.253-8.43 4.814a.654.654 0 01-.888-.237l-1.81-3.104a.642.642 0 01.24-.879l10.018-5.721a.658.658 0 01.528-.067l22.575 6.785a.643.643 0 01.434.803l-1.053 3.429a.651.651 0 01-.811.43zM50.079 3.879l20.45 6.146.674-2.198-21.682-6.516-9.225 5.268 1.16 1.99 8.111-4.632a.655.655 0 01.512-.058zm20.695 7.565L49.971 5.192l-8.43 4.814a.654.654 0 01-.888-.238l-1.81-3.104a.642.642 0 01.24-.879L49.101.064a.658.658 0 01.528-.067l22.575 6.785a.643.643 0 01.434.803l-1.053 3.43a.651.651 0 01-.811.429zm-20.695-1.24l20.45 6.146.674-2.198-21.682-6.516-9.225 5.269 1.16 1.989 8.111-4.632a.65.65 0 01.512-.057v-.001zm20.695 7.565l-20.803-6.252-8.43 4.814a.655.655 0 01-.888-.237l-1.81-3.105a.64.64 0 01.24-.878L49.101 6.39a.65.65 0 01.528-.067l22.575 6.784a.643.643 0 01.434.803l-1.053 3.43a.651.651 0 01-.811.429zm-20.695-1.24l20.45 6.146.674-2.198-21.682-6.516-9.225 5.269 1.16 1.989 8.111-4.632a.65.65 0 01.512-.057v-.001zm20.695 7.565l-20.803-6.252-8.43 4.814a.654.654 0 01-.888-.237l-1.81-3.105a.64.64 0 01.24-.878l10.018-5.721a.654.654 0 01.528-.067l22.575 6.784a.643.643 0 01.434.803l-1.053 3.43a.651.651 0 01-.811.429zM15.658 60.806l20.449 6.146.675-2.198-21.683-6.516-9.225 5.268 1.16 1.99 8.111-4.632a.656.656 0 01.512-.058h.001zm20.694 7.565l-20.803-6.252-8.429 4.814a.654.654 0 01-.888-.237l-1.81-3.105a.64.64 0 01.24-.879l10.018-5.721a.655.655 0 01.527-.066l22.575 6.784a.642.642 0 01.434.802l-1.052 3.431a.652.652 0 01-.812.429zm-20.694-13.89l20.449 6.145.675-2.197-21.683-6.516-9.225 5.268 1.16 1.99 8.111-4.632a.656.656 0 01.512-.058h.001zm20.694 7.564l-20.803-6.251-8.429 4.814a.655.655 0 01-.888-.238l-1.81-3.104a.64.64 0 01.24-.879l10.018-5.72a.652.652 0 01.527-.067l22.575 6.784a.643.643 0 01.434.803l-1.052 3.429a.65.65 0 01-.812.429zm-20.694-13.89l20.449 6.146.675-2.197-21.683-6.516-9.225 5.268 1.16 1.989 8.111-4.631a.652.652 0 01.512-.058l.001-.001zm20.694 7.566l-20.803-6.252-8.429 4.813a.653.653 0 01-.888-.237l-1.81-3.105a.639.639 0 01.24-.878l10.018-5.721a.656.656 0 01.527-.067l22.575 6.784a.643.643 0 01.434.803l-1.052 3.43a.653.653 0 01-.812.43zM15.658 41.83l20.449 6.145.675-2.197-21.683-6.515-9.225 5.268 1.16 1.989 8.111-4.631a.648.648 0 01.512-.058l.001-.001zm20.694 7.565l-20.803-6.252-8.429 4.814a.654.654 0 01-.888-.237l-1.81-3.104a.64.64 0 01.24-.879l10.018-5.721a.648.648 0 01.527-.067l22.575 6.784a.643.643 0 01.434.803l-1.052 3.43a.652.652 0 01-.812.429zm-20.694-13.89l20.449 6.145.675-2.197-21.683-6.516-9.225 5.268 1.16 1.99 8.111-4.632a.656.656 0 01.512-.058h.001zm20.694 7.565l-20.803-6.251-8.429 4.813a.654.654 0 01-.888-.237l-1.81-3.105a.64.64 0 01.24-.879L14.68 31.69a.651.651 0 01.527-.066l22.575 6.784a.643.643 0 01.434.803l-1.052 3.429a.651.651 0 01-.812.43zM15.658 29.179l20.449 6.146.675-2.197-21.683-6.516-9.225 5.268 1.16 1.99 8.111-4.633a.656.656 0 01.512-.057l.001-.001zm20.694 7.566l-20.803-6.252-8.429 4.814a.654.654 0 01-.888-.237l-1.81-3.105a.64.64 0 01.24-.879l10.018-5.72a.652.652 0 01.527-.068l22.575 6.785a.643.643 0 01.434.803l-1.052 3.43a.652.652 0 01-.812.429zM15.658 22.854L36.107 29l.675-2.197-21.683-6.516-9.225 5.268 1.16 1.99 8.111-4.632a.656.656 0 01.512-.058l.001-.001zm20.694 7.566l-20.803-6.253-8.429 4.814a.654.654 0 01-.888-.237l-1.81-3.104a.64.64 0 01.24-.879L14.68 19.04a.656.656 0 01.527-.067l22.575 6.785a.643.643 0 01.434.803l-1.052 3.429a.652.652 0 01-.812.43z"/></svg>

<svg 
 xmlns="http://www.w3.org/2000/svg"
 xmlns:xlink="http://www.w3.org/1999/xlink"
 width="81px" height="84px">
<path fill-rule="evenodd"  fill="rgb(129, 129, 129)"
 d="M15.658,16.529 L36.107,22.675 L36.782,20.477 L15.099,13.961 L5.874,19.230 L7.034,21.219 L15.145,16.587 C15.307,16.495 15.492,16.480 15.657,16.530 L15.658,16.529 L15.658,16.529 ZM36.352,24.094 L15.549,17.842 L7.120,22.656 C6.809,22.833 6.411,22.728 6.232,22.419 L4.422,19.314 C4.243,19.006 4.350,18.613 4.662,18.436 L14.680,12.715 C14.832,12.622 15.023,12.593 15.207,12.648 L37.782,19.432 C38.126,19.535 38.320,19.895 38.216,20.235 L37.164,23.665 C37.060,24.005 36.696,24.197 36.352,24.094 L36.352,24.094 ZM70.349,79.922 L70.349,73.952 C70.349,73.867 70.365,73.785 70.396,73.710 L71.203,71.080 L49.521,64.564 L40.296,69.831 L40.984,71.013 C41.043,71.113 41.071,71.224 41.071,71.333 L41.074,71.333 L41.074,79.922 C41.074,80.278 40.781,80.568 40.421,80.568 L36.580,80.568 C36.220,80.568 35.927,80.278 35.927,79.922 L35.927,73.952 C35.927,73.867 35.944,73.785 35.975,73.710 L36.782,71.080 L15.099,64.564 L5.874,69.831 L6.563,71.013 C6.621,71.113 6.649,71.224 6.649,71.333 L6.652,71.333 L6.652,79.922 C6.652,80.278 6.359,80.568 5.999,80.568 L1.302,80.568 L1.302,82.703 L79.676,82.703 L79.676,80.568 L71.002,80.568 C70.641,80.568 70.349,80.278 70.349,79.922 L70.349,79.922 ZM71.655,74.040 L71.655,79.275 L80.329,79.275 C80.690,79.275 80.983,79.564 80.983,79.922 L80.983,83.349 C80.983,83.707 80.690,83.997 80.329,83.997 L0.648,83.997 C0.288,83.997 -0.005,83.707 -0.005,83.349 L-0.005,79.922 C-0.005,79.564 0.288,79.275 0.648,79.275 L5.345,79.275 L5.345,71.501 L4.422,69.916 C4.243,69.608 4.350,69.214 4.662,69.037 L14.680,63.317 C14.832,63.224 15.023,63.194 15.207,63.250 L37.782,70.034 C38.126,70.137 38.320,70.497 38.216,70.837 L37.233,74.040 L37.233,79.275 L39.767,79.275 L39.767,71.501 L38.843,69.916 C38.665,69.608 38.772,69.214 39.083,69.037 L49.101,63.317 C49.254,63.224 49.444,63.194 49.629,63.250 L72.204,70.034 C72.548,70.137 72.742,70.497 72.638,70.837 L71.655,74.040 L71.655,74.040 ZM19.571,79.922 L19.571,72.634 C19.571,72.277 19.863,71.987 20.224,71.987 C20.298,71.987 20.369,72.000 20.436,72.022 L31.437,74.635 C31.735,74.705 31.937,74.970 31.937,75.262 L31.939,75.262 L31.939,79.922 C31.939,80.278 31.646,80.568 31.286,80.568 L20.224,80.568 C19.863,80.568 19.571,80.278 19.571,79.922 L19.571,79.922 ZM20.877,73.451 L20.877,79.275 L30.633,79.275 L30.633,75.769 L20.877,73.451 L20.877,73.451 ZM53.993,79.922 L53.993,72.634 C53.993,72.277 54.285,71.987 54.646,71.987 C54.720,71.987 54.791,72.000 54.857,72.022 L65.858,74.635 C66.157,74.705 66.358,74.970 66.358,75.262 L66.361,75.262 L66.361,79.922 C66.361,80.278 66.068,80.568 65.708,80.568 L54.646,80.568 C54.285,80.568 53.993,80.278 53.993,79.922 L53.993,79.922 ZM55.299,73.451 L55.299,79.275 L65.055,79.275 L65.055,75.769 L55.299,73.451 L55.299,73.451 ZM50.079,60.806 L70.529,66.952 L71.203,64.754 L49.521,58.238 L40.296,63.506 L41.456,65.496 L49.567,60.864 C49.728,60.772 49.913,60.757 50.079,60.806 L50.079,60.806 L50.079,60.806 ZM70.774,68.371 L49.971,62.119 L41.541,66.933 C41.230,67.110 40.833,67.004 40.653,66.696 L38.843,63.591 C38.665,63.283 38.772,62.889 39.083,62.712 L49.101,56.991 C49.254,56.900 49.444,56.869 49.629,56.925 L72.204,63.709 C72.548,63.812 72.742,64.172 72.638,64.511 L71.585,67.942 C71.481,68.282 71.118,68.474 70.774,68.371 L70.774,68.371 ZM50.079,54.481 L70.529,60.626 L71.203,58.429 L49.521,51.913 L40.296,57.181 L41.456,59.171 L49.567,54.539 C49.728,54.447 49.913,54.432 50.079,54.481 L50.079,54.481 L50.079,54.481 ZM70.774,62.045 L49.971,55.794 L41.541,60.608 C41.230,60.785 40.833,60.678 40.653,60.370 L38.843,57.266 C38.665,56.958 38.772,56.564 39.083,56.387 L49.101,50.667 C49.254,50.574 49.444,50.545 49.629,50.600 L72.204,57.384 C72.548,57.487 72.742,57.847 72.638,58.187 L71.585,61.616 C71.481,61.957 71.118,62.149 70.774,62.045 L70.774,62.045 ZM50.079,48.155 L70.529,54.301 L71.203,52.104 L49.521,45.588 L40.296,50.856 L41.456,52.845 L49.567,48.214 C49.728,48.122 49.913,48.106 50.079,48.156 L50.079,48.155 L50.079,48.155 ZM70.774,55.721 L49.971,49.469 L41.541,54.282 C41.230,54.459 40.833,54.354 40.653,54.045 L38.843,50.940 C38.665,50.632 38.772,50.239 39.083,50.062 L49.101,44.341 C49.254,44.249 49.444,44.219 49.629,44.274 L72.204,51.058 C72.548,51.161 72.742,51.521 72.638,51.861 L71.585,55.291 C71.481,55.631 71.118,55.824 70.774,55.721 L70.774,55.721 ZM50.079,41.830 L70.529,47.975 L71.203,45.778 L49.521,39.263 L40.296,44.531 L41.456,46.520 L49.567,41.889 C49.728,41.796 49.913,41.781 50.079,41.831 L50.079,41.830 L50.079,41.830 ZM70.774,49.395 L49.971,43.143 L41.541,47.957 C41.230,48.134 40.833,48.028 40.653,47.720 L38.843,44.616 C38.665,44.307 38.772,43.914 39.083,43.737 L49.101,38.016 C49.254,37.923 49.444,37.893 49.629,37.949 L72.204,44.733 C72.548,44.836 72.742,45.195 72.638,45.536 L71.585,48.966 C71.481,49.306 71.118,49.498 70.774,49.395 L70.774,49.395 ZM50.079,35.505 L70.529,41.650 L71.203,39.453 L49.521,32.937 L40.296,38.205 L41.456,40.195 L49.567,35.563 C49.728,35.471 49.913,35.456 50.079,35.505 L50.079,35.505 L50.079,35.505 ZM70.774,43.070 L49.971,36.819 L41.541,41.632 C41.230,41.809 40.833,41.703 40.653,41.395 L38.843,38.290 C38.665,37.982 38.772,37.588 39.083,37.411 L49.101,31.690 C49.254,31.598 49.444,31.568 49.629,31.624 L72.204,38.408 C72.548,38.511 72.742,38.871 72.638,39.211 L71.585,42.640 C71.481,42.981 71.118,43.174 70.774,43.070 L70.774,43.070 ZM50.079,29.179 L70.529,35.325 L71.203,33.128 L49.521,26.612 L40.296,31.880 L41.456,33.870 L49.567,29.237 C49.728,29.146 49.913,29.130 50.079,29.180 L50.079,29.179 L50.079,29.179 ZM70.774,36.745 L49.971,30.493 L41.541,35.307 C41.230,35.484 40.833,35.378 40.653,35.070 L38.843,31.965 C38.665,31.657 38.772,31.263 39.083,31.086 L49.101,25.366 C49.254,25.273 49.444,25.243 49.629,25.298 L72.204,32.083 C72.548,32.185 72.742,32.546 72.638,32.886 L71.585,36.316 C71.481,36.656 71.118,36.848 70.774,36.745 L70.774,36.745 ZM50.079,22.854 L70.529,29.000 L71.203,26.803 L49.521,20.287 L40.296,25.555 L41.456,27.545 L49.567,22.913 C49.728,22.821 49.913,22.806 50.079,22.855 L50.079,22.854 L50.079,22.854 ZM70.774,30.420 L49.971,24.167 L41.541,28.981 C41.230,29.159 40.833,29.052 40.653,28.744 L38.843,25.640 C38.665,25.332 38.772,24.938 39.083,24.761 L49.101,19.040 C49.254,18.948 49.444,18.918 49.629,18.973 L72.204,25.758 C72.548,25.861 72.742,26.220 72.638,26.561 L71.585,29.990 C71.481,30.331 71.118,30.523 70.774,30.420 L70.774,30.420 ZM50.079,3.879 L70.529,10.025 L71.203,7.827 L49.521,1.311 L40.296,6.579 L41.456,8.569 L49.567,3.937 C49.728,3.845 49.913,3.830 50.079,3.879 L50.079,3.879 L50.079,3.879 ZM70.774,11.444 L49.971,5.192 L41.541,10.006 C41.230,10.183 40.833,10.077 40.653,9.768 L38.843,6.664 C38.665,6.356 38.772,5.962 39.083,5.785 L49.101,0.064 C49.254,-0.028 49.444,-0.058 49.629,-0.003 L72.204,6.782 C72.548,6.885 72.742,7.245 72.638,7.585 L71.585,11.015 C71.481,11.355 71.118,11.547 70.774,11.444 L70.774,11.444 ZM50.079,10.204 L70.529,16.350 L71.203,14.152 L49.521,7.636 L40.296,12.905 L41.456,14.894 L49.567,10.262 C49.728,10.170 49.913,10.155 50.079,10.205 L50.079,10.204 L50.079,10.204 ZM70.774,17.769 L49.971,11.517 L41.541,16.331 C41.230,16.508 40.833,16.402 40.653,16.094 L38.843,12.989 C38.665,12.681 38.772,12.287 39.083,12.111 L49.101,6.390 C49.254,6.297 49.444,6.267 49.629,6.323 L72.204,13.107 C72.548,13.210 72.742,13.570 72.638,13.910 L71.585,17.340 C71.481,17.680 71.118,17.872 70.774,17.769 L70.774,17.769 ZM50.079,16.529 L70.529,22.675 L71.203,20.477 L49.521,13.961 L40.296,19.230 L41.456,21.219 L49.567,16.587 C49.728,16.495 49.913,16.480 50.079,16.530 L50.079,16.529 L50.079,16.529 ZM70.774,24.094 L49.971,17.842 L41.541,22.656 C41.230,22.833 40.833,22.728 40.653,22.419 L38.843,19.314 C38.665,19.006 38.772,18.613 39.083,18.436 L49.101,12.715 C49.254,12.622 49.444,12.593 49.629,12.648 L72.204,19.432 C72.548,19.535 72.742,19.895 72.638,20.235 L71.585,23.665 C71.481,24.005 71.118,24.197 70.774,24.094 L70.774,24.094 ZM15.658,60.806 L36.107,66.952 L36.782,64.754 L15.099,58.238 L5.874,63.506 L7.034,65.496 L15.145,60.864 C15.307,60.772 15.492,60.757 15.657,60.806 L15.658,60.806 L15.658,60.806 ZM36.352,68.371 L15.549,62.119 L7.120,66.933 C6.808,67.110 6.411,67.004 6.232,66.696 L4.422,63.591 C4.243,63.283 4.350,62.889 4.662,62.712 L14.680,56.991 C14.832,56.900 15.023,56.869 15.207,56.925 L37.782,63.709 C38.126,63.812 38.320,64.172 38.216,64.511 L37.164,67.942 C37.060,68.282 36.696,68.474 36.352,68.371 L36.352,68.371 ZM15.658,54.481 L36.107,60.626 L36.782,58.429 L15.099,51.913 L5.874,57.181 L7.034,59.171 L15.145,54.539 C15.307,54.447 15.492,54.432 15.657,54.481 L15.658,54.481 L15.658,54.481 ZM36.352,62.045 L15.549,55.794 L7.120,60.608 C6.808,60.785 6.411,60.678 6.232,60.370 L4.422,57.266 C4.243,56.958 4.350,56.564 4.662,56.387 L14.680,50.667 C14.832,50.574 15.023,50.545 15.207,50.600 L37.782,57.384 C38.126,57.487 38.320,57.847 38.216,58.187 L37.164,61.616 C37.060,61.957 36.696,62.149 36.352,62.045 L36.352,62.045 ZM15.658,48.155 L36.107,54.301 L36.782,52.104 L15.099,45.588 L5.874,50.856 L7.034,52.845 L15.145,48.214 C15.307,48.122 15.492,48.106 15.657,48.156 L15.658,48.155 L15.658,48.155 ZM36.352,55.721 L15.549,49.469 L7.120,54.282 C6.808,54.459 6.411,54.354 6.232,54.045 L4.422,50.940 C4.243,50.632 4.350,50.239 4.662,50.062 L14.680,44.341 C14.832,44.249 15.023,44.219 15.207,44.274 L37.782,51.058 C38.126,51.161 38.320,51.521 38.216,51.861 L37.164,55.291 C37.060,55.631 36.696,55.824 36.352,55.721 L36.352,55.721 ZM15.658,41.830 L36.107,47.975 L36.782,45.778 L15.099,39.263 L5.874,44.531 L7.034,46.520 L15.145,41.889 C15.307,41.796 15.492,41.781 15.657,41.831 L15.658,41.830 L15.658,41.830 ZM36.352,49.395 L15.549,43.143 L7.120,47.957 C6.808,48.134 6.411,48.028 6.232,47.720 L4.422,44.616 C4.243,44.307 4.350,43.914 4.662,43.737 L14.680,38.016 C14.832,37.923 15.023,37.893 15.207,37.949 L37.782,44.733 C38.126,44.836 38.320,45.195 38.216,45.536 L37.164,48.966 C37.060,49.306 36.696,49.498 36.352,49.395 L36.352,49.395 ZM15.658,35.505 L36.107,41.650 L36.782,39.453 L15.099,32.937 L5.874,38.205 L7.034,40.195 L15.145,35.563 C15.307,35.471 15.492,35.456 15.657,35.505 L15.658,35.505 L15.658,35.505 ZM36.352,43.070 L15.549,36.819 L7.120,41.632 C6.809,41.809 6.411,41.703 6.232,41.395 L4.422,38.290 C4.243,37.982 4.350,37.588 4.662,37.411 L14.680,31.690 C14.832,31.598 15.023,31.568 15.207,31.624 L37.782,38.408 C38.126,38.511 38.320,38.871 38.216,39.211 L37.164,42.640 C37.060,42.981 36.696,43.174 36.352,43.070 L36.352,43.070 ZM15.658,29.179 L36.107,35.325 L36.782,33.128 L15.099,26.612 L5.874,31.880 L7.034,33.870 L15.145,29.237 C15.307,29.146 15.492,29.130 15.657,29.180 L15.658,29.179 L15.658,29.179 ZM36.352,36.745 L15.549,30.493 L7.120,35.307 C6.809,35.484 6.411,35.378 6.232,35.070 L4.422,31.965 C4.243,31.657 4.350,31.263 4.662,31.086 L14.680,25.366 C14.832,25.273 15.023,25.243 15.207,25.298 L37.782,32.083 C38.126,32.185 38.320,32.546 38.216,32.886 L37.164,36.316 C37.060,36.656 36.696,36.848 36.352,36.745 L36.352,36.745 ZM15.658,22.854 L36.107,29.000 L36.782,26.803 L15.099,20.287 L5.874,25.555 L7.034,27.545 L15.145,22.913 C15.307,22.821 15.492,22.806 15.657,22.855 L15.658,22.854 L15.658,22.854 ZM36.352,30.420 L15.549,24.167 L7.120,28.981 C6.809,29.159 6.411,29.052 6.232,28.744 L4.422,25.640 C4.243,25.332 4.350,24.938 4.662,24.761 L14.680,19.040 C14.832,18.948 15.023,18.918 15.207,18.973 L37.782,25.758 C38.126,25.861 38.320,26.220 38.216,26.561 L37.164,29.990 C37.060,30.331 36.696,30.523 36.352,30.420 L36.352,30.420 Z"/>
</svg>
